X: 179
%
U:~=!turn!
T: Fife Hunt
C:Wm. Gow
O:Scotland
B:Keith Norman MacDonald : "The Skye collection of the best reels & strathspeys extant" : 1887
Z:Ralph Palmer
R:Reel
M:C
L:1/8
K:C
f | ec Tc2 	GE TE2 | D d2 ^c d2 df | ec Tc2 GE TE2  | C c2 B c2- cf | ec Tc2 GE TE2 |
E d2 ^c d2 df | ec Tc2 GE E2 | Cc Bd c2 c || (f | e>)c g>c ac gc | D d2 ^c d2- d>f |
ecgc acgc | G c2 B d2 c(f | e)cgc acgc | D d2 ^c d2- df | egcg fadf | Gc Bd c2 c |]


